X: 39994
T: Three Knocks To The Noggin
R: reel
M: 4/4
K: Dmajor
|:Ag|fdAF ~G3 B|AF F/F/F EFDF|fdAF ~G2 GB|Adcd ed:|
c/d/B|A2 fA gAfA|~A2 fA ge c/d/B|A2 fA gAfA|ge c/d/B ge d/c/B|
A2 fA gAfA|~A2 fA gece|~g3 a bAaA|gA e/d/c d2||

